!!!!SEGMENT: pl-wtm--1124-3622--001-003_rozycki-ludomir--5-preludes-op-2-no-3.krn
!!!cenid: 19xx:130
!!!COM: Różycki, Ludomir
!!!COM-rismID: pe50045573
!!!CDT: 1883-1953
!!!CNT: Polish
!!!GTL: 5 Préludes op. 2
!!!OTL: No. 3.
!!!OMV: 003
!!!PDT: 1924
!!!AGN: Secular; Prelude
!!!YEC: Copyright 2022 Narodowy Instytut Fryderyka Chopina (https://polishscores.org)
!!!YEM: License CC-BY-4.0 (https://creativecommons.org/licenses/by/4.0)
!!!SMS-siglum: PL-Wtm
!!!SMS-shelfmark: 1124 3622
!!!SMS-variant:
!!!SMS-altvar:
!!!SMS-shelfwork: 001-003 G
!!!NIFC-rismSourceID: 1001214520
!!!NIFC-rismChildID: 1001214520
!!!NIFC-islandoraID: pl-wtm:72703
!!!URL-pdf-islandora: https://repozytorium.nifc.pl/islandora/object/pl-wtm%3A72703/datastream/PDF/view
!!!URL-scan: https://polish.musicsources.pl/pl/lokalizacje/galeria/druki-muzyczne/18454/5 @EN{Scan on Polish Music Sources Website} @PL{Skany w portalu Dziedzictwo Muzyki Polskiej w otwartym dostępie}
!!!IIIF:
!!!ONB-nifc:
!!!OMD: Allegretto.
!!!AIN: 1 piano
!!!key: A
**kern	**fing	**kern	**fing	**dynam
*part1	*part1	*part1	*part1	*part1
*staff2	*staff2	*staff1	*staff1	*
*ICklav	*	*ICklav	*	*
*Ipiano	*	*Ipiano	*	*
*I"M.M.quarter=76	*	*I"M.M.quarter=76	*	*
*clefF4	*	*clefG2	*	*
*k[f#c#g#]	*	*k[f#c#g#]	*	*
*A:	*	*A:	*	*
*M4/4	*	*M4/4	*	*
*met(c)	*	*met(c)	*	*
=1	=1	=1	=1	=1
*ped	*below	*	*	*
!	!	!LO:TX:a:t=	!	!
!	!	!LO:TX:b:i:t=legato	!	!
4f#>\ 4a>	1 3	4cc#/ 4aa	1 4	p
*ped	*	*	*	*
4d>\ 4f#>	2 4	4dd/ 4bb	1 5	.
*ped	*	*	*	*
4e>\ 4g#>	1 3	8b/L 8gg#	1 4	.
.	.	8gg#/J	4	.
*ped	*	*	*	*
4c#>\ 4e>	2 4	4cc#/ 4aa	2 5	.
*Xped	*	*	*	*
=2	=2	=2	=2	=2
*^	*	*^	*	*
*	*	*	*	*	*^	*
(4f#/	8d\L	1 3	8r	(2a\	.	1	.
.	8c#\J	.	(8ff#/L	.	3	.	.
4d/	4B\	.	8ff#/	.	4	.	.
.	.	.	8gg#/J	.	.	.	.
2c#\) 2e	2ryy	.	2g#\)) 2ee	2ryy	1 3	.	.
*	*	*	*	*	*v	*v	*
=3	=3	=3	=3	=3	=3	=3
*ped	*	*	*	*	*	*
(2c#:/	1BB: 1F#:	.	(4ee:/	1f#:	4	<
.	.	.	4ff#/	.	.	[
*Xped	*	*	*	*	*	*
2B/)	.	.	8dd/L	.	4	>
.	.	.	8cc#/J	.	.	.
.	.	.	4b/)	.	.	]
*v	*v	*	*	*	*	*
!!LO:LB:g=original
=4	=4	=4	=4	=4	=4
(2E\ 2G#	1 2	8r	2d\ 2f#	.	] p
.	.	(8b/L	.	5	.
.	.	8b/	.	4	.
.	.	8cc#/J	.	.	.
2AA\) 2E 2A	.	2a/)	2c#\ 2f#	3	.
=5	=5	=5	=5	=5	=5
*^	*	*	*	*	*
(4cn/	2D\ 2A	.	(4a/	8r	4	mf
!	!	!	!	!	!	!LO:HP:a
.	.	.	.	8d\ 8fn	.	<
!	!	!	!LO:TX:a:i:t=doloroso	!	!	!
4B/	.	1	4b/	8r	5	.
.	.	.	.	8d\ 8f	.	[
!	!	!	!	!	!	!LO:HP:a
2Gn/)	2AA\ 2E	1 2 5	8ccn/L	8r	5	>
.	.	.	8b/J	8cn\ 8e	5	.
.	.	.	4a/)	8r	4	]
.	.	.	.	8c\ 8e	.	.
=6	=6	=6	=6	=6	=6	=6
(4cn/	2D\ 2A	.	(4a/	8r	4	.
.	.	.	.	8d\ 8fn	.	.
4B/	.	.	4b/	8r	.	.
.	.	.	.	8d\ 8f	.	.
2Gn/)	2AA\ 2E-X	.	8ccn/L	8r	.	.
.	.	.	8b/J	8cn\ 8e-X	.	.
.	.	.	4a/)	8r	.	.
.	.	.	.	8c\ 8e-	.	.
*v	*v	*	*	*	*	*
!!LO:LB:g=original
=7	=7	=7	=7	=7	=7
*ped	*	*	*	*	*
!	!	!LO:TX:a:i:t=poco a poco	!	!	!
2DD:/ 2AA: 2D: 2A:	1 2 3 5	(4a/	8r	4	.
.	.	.	8B\ 8fn	.	.
.	.	4b/	8r	.	.
.	.	.	8B\ 8f	.	.
*ped	*	*	*	*	*
2AAA:/ 2EE: 2AA: 2E:	.	8ccn/L	8r	5	.
.	.	8b/J	8cn\ 8f#X	4	.
.	.	4a/)	8r	3	.
.	.	.	8c\ 8f#	.	.
=8	=8	=8	=8	=8	=8
*ped	*	*	*	*	*
!	!	!	!	!	!LO:HP:a:t=crescendo
2DD:/ 2AA: 2D: 2A:	.	(4a/	8r	.	<
.	.	.	8B\ 8fn	.	.
.	.	4b/	8r	.	.
.	.	.	8B\ 8f	.	.
*ped	*	*	*	*	*
2DDD:/ 2AAA: 2DD: 2AA:	.	8ccn/L	8r	5	.
.	.	8b/J	8c#\ 8f#X	4	.
.	.	4a/)	8r	3	.
.	.	.	8c#\ 8fn	.	.
=9	=9	=9	=9	=9	=9
*^	*	*	*	*	*
*	*ped	*	*	*	*	*
8FFn/	1AAA^ 1CC#	.	1a 1aa	8ryy	.	sfz
!LO:TX:a:i:t=mysterioso	!	!	!	!	!	!LO:DY:b=2
4FF~/	.	.	.	2.ryy	.	p
4FF~/	.	.	.	.	.	.
4FF~/	.	.	.	.	.	.
8FF~/	.	.	.	8ryy	.	.
*	*Xped	*	*	*	*	*
*v	*v	*	*	*	*	*
*	*	*v	*v	*	*
!!LO:LB:g=original
=10||	=10||	=10||	=10||	=10||
*M2/4	*	*M2/4	*	*
*^	*	*^	*	*
4.A/	2AA\ 2E	.	(8ccn/L	2cn\ 2f#X	.	p
.	.	.	8b/J	.	.	.
.	.	.	4a/)	.	.	.
8A/	.	.	.	.	.	.
*v	*v	*	*	*	*	*
*	*	*v	*v	*	*
=11	=11	=11	=11	=11
*M4/4	*	*M4/4	*	*
*^	*	*	*	*
*	*	*	*	*	*^
*	*ped	*	*	*	*	*
!	!	!	!LO:TX:b:i:t=rall._:ext=ud	!	!LO:DY:b	!LO:DY:b=2:rj
8FFn/	1AAA 1CC# 1EE	.	1a: 1aa:	.	p	pp
4FF/	.	.	.	.	.	.
4FF/	.	.	.	.	.	.
4FF/	.	.	.	.	.	.
8FF;/	.	.	.	.	.	.
*	*	*	*	*	*v	*v
*	*Xped	*	*	*	*
*v	*v	*	*	*	*
=12	=12	=12	=12	=12
*ped	*	*	*	*
4f#X>\ 4a>	1 3	(>4cc#/ 4aa	1 4	pp
*ped	*	*	*	*
4d>\ 4f#>	2 4	4dd/ 4bb	1 5	.
*ped	*	*	*	*
4e>\ 4g#>	1 3	8b/L 8gg#	1 4	.
.	.	8gg#/J	.	.
*ped	*	*	*	*
4c#>\ 4e>	2 4	4cc#/) 4aa	2 5	.
!!LO:LB:g=original
=13	=13	=13	=13	=13
*^	*	*^	*	*
(4f#/	8d\L	.	8r	(2a\	.	.
.	8c#\J	.	(8ff#/L	.	3	.
4d/	4B\	.	8ff#/	.	4	.
.	.	.	8gg#/J	.	.	.
2c#\) 2e	2ryy	.	2ee/)	4g#\	.	.
.	.	.	.	4gn\)	.	.
=14	=14	=14	=14	=14	=14	=14
*ped	*	*	*	*	*	*
4c#~:/	1BB: 1F#:	.	(4ee:/	1f#:	4	<
4B~/	.	1	4ff#/	.	.	[
*Xped	*	*	*	*	*	*
4B-X~/	.	1	8dd/L	.	4	.
.	.	.	8cc#/J	.	.	.
4A~/	.	1	4bn/)	.	.	.
=15	=15	=15	=15	=15	=15	=15
!	!	!	!LO:TX:b:i:t=rit._:ext=ud	!	!	!
2E\ 2G#	2ryy	1 2	8r	2d\ 2f#	.	.
.	.	.	8b/L	.	5	.
.	.	.	(<8b~</	.	4	.
.	.	.	8cc#/J)	.	.	.
*ped	*	*	*	*	*	*
8FFn/	[2AAA\ [2CC#	.	[2A/ [2a	2ryy	.	>
4FF/	.	.	.	.	.	.
*Xped	*	*above	*	*	*	*
(8FF/	.	1	.	.	.	]
*	*	*	*v	*v	*	*
=16	=16	=16	=16	=16	=16
2EE/)	2AAA\] 2CC#]	2	2A/] 2a]	.	.
*v	*v	*	*	*	*
==	==	==	==	==
*-	*-	*-	*-	*-
!!!system-decoration: {(s1,s2)}
!!!RDF**kern: < = below
!!!RDF**kern: > = above
!!!ENC: Filip Voros
!!!END: 2023-10-11
!!!EED: Marta Chmielewska
!!!EEV: 2023-10-23
